X:120
T:Interlake Waltz
C:Andy De Jarlis
M:3/4
L:1/8
Z:abc by Bruce Osborne - bosborne@kos.net
K:G
dc|B2 d2 g2|d4 ed|c2 e2 a2|e3 g fe|!
d2 f z fg|f2 e2 d2|B3 c BA|B4 dc|!
B2 d2 g2|d4 ed|c2 e2 a2|e3 g fe|!
d2 f2 g2|a2 e2 f2|g2 gf ga|g4:|!
|:DC|B,6|C6|B,3 D GA|B4 AB|!
c2 AB AG|F4 Dc|B2 G3 E|DE DC B,A,|!
B,6|C6|B,3 D GA|B4 AB|!
c2 AB AF|D2 E2 F2|G2 GF GA|G4:|!
